X: 1
T: Baby Face
C: Davis-Akst
M: C
L: 1/8
K: C|
[| "C"G4 E2G2- | G2z2 "(Ab)"z4 | "C"z2c2 c2B2 | "C"B2A2 "F"A2G2 |
w: Ba-by face_ You've got the cut-est lit-tle
"G"F2 D2F2- | F2z2 "(C#7)"z4 | "G7"z2B2 B2A2 | A2G2 G2_G2 |
w: ba-by face_ There's not an-oth-er one could
"G7"F4 D2 F2- | "(Ab7)"F4- "G7"F4 | "C"G4 E2G2 | "A7/C#"G8 |
w: take your place__ Ba-by face_
"D7"A4 B2c2- | c2B2 c2A2 | "G7"B2c2 ^c2d2 | d2B2 A2_A2 |
w: My poor heart_ is jump-in' You sure have start-ed some-thin'
"C"G4 E2G2- | G2z2 "(Ab7)"z4 | "C"z2c2 c2B2 | B2A2 "F"A2"C"G2 |
w: Ba-by face_ I'm up in hea-ven when I'm
"E7"^G4 G4 | "D"A4 "E7"B4 | "Am"c4- "C7"c4- | "C7"c2B2 "A7"c2^c2 |
w: in your fond em-brace.__ I did-n't
"Dm"d4 c2B2- | B2A2 ^G2A2 | "C"c2 B2"A7"A2- | A4 G2^G2 |
w: need a shove_ 'cause I just fell in love_ with you
"D7"A4 "D+"^A4 | "G7"B2[e6G6] | "C"c4- "(Ab)"c4- | "C"c2z2 z4 |]
w: pret-ty  ba-by face.__


